docs/fig/feynman-gluex-two-pseudoscalar.svg

<?xml version="1.0" encoding="UTF-8" standalone="no"?>
<svg
   width="133.4745pt"
   height="135.25238pt"
   viewBox="0 0 133.4745 135.25238"
   version="1.1"
   id="svg20"
   sodipodi:docname="feynman-gluex-two-pseudoscalar.svg"
   inkscape:version="1.3 (0e150ed6c4, 2023-07-21)"
   xmlns:inkscape="http://www.inkscape.org/namespaces/inkscape"
   xmlns:sodipodi="http://sodipodi.sourceforge.net/DTD/sodipodi-0.dtd"
   xmlns:xlink="http://www.w3.org/1999/xlink"
   xmlns="http://www.w3.org/2000/svg"
   xmlns:svg="http://www.w3.org/2000/svg">
  <sodipodi:namedview
     id="namedview20"
     pagecolor="#ffffff"
     bordercolor="#666666"
     borderopacity="1.0"
     inkscape:showpageshadow="2"
     inkscape:pageopacity="0.0"
     inkscape:pagecheckerboard="0"
     inkscape:deskcolor="#d1d1d1"
     inkscape:document-units="pt"
     inkscape:zoom="1.0243148"
     inkscape:cx="156.20198"
     inkscape:cy="220.14717"
     inkscape:window-width="1920"
     inkscape:window-height="1009"
     inkscape:window-x="-8"
     inkscape:window-y="-8"
     inkscape:window-maximized="1"
     inkscape:current-layer="svg20" />
  <defs
     id="defs7">
    <g
       id="g7">
      <g
         id="glyph-0-0" />
      <g
         id="glyph-0-1">
        <path
           d="M 5.421875,-1.75 C 5.390625,-2.453125 5.359375,-3.5625 4.8125,-4.84375 4.53125,-5.5625 4.046875,-6.328125 3,-6.328125 c -1.765625,0 -2.734375,2.25 -2.734375,2.625 0,0.125 0.109375,0.125 0.15625,0.125 0.125,0 0.125,-0.015625 0.1875,-0.203125 0.3125,-0.890625 1.234375,-1.59375 2.21875,-1.59375 1.984375,0 2.28125,2.21875 2.28125,3.640625 0,0.90625 -0.109375,1.203125 -0.1875,1.484375 -0.28125,0.890625 -0.75,2.671875 -0.75,3.078125 0,0.109375 0.046875,0.234375 0.15625,0.234375 0.21875,0 0.34375,-0.46875 0.5,-1.046875 0.34375,-1.25 0.4375,-1.890625 0.5,-2.453125 0.046875,-0.34375 0.875,-2.71875 2,-4.96875 C 7.4375,-5.640625 7.625,-6.03125 7.625,-6.0625 c 0,-0.015625 -0.015625,-0.125 -0.140625,-0.125 -0.03125,0 -0.09375,0 -0.125,0.0625 -0.03125,0.03125 -0.53125,1 -0.96875,1.984375 -0.203125,0.484375 -0.5,1.125 -0.96875,2.390625 z m 0,0"
           id="path1" />
      </g>
      <g
         id="glyph-0-2">
        <path
           d="M 0.609375,1.828125 C 0.515625,2.25 0.453125,2.359375 -0.125,2.359375 c -0.171875,0 -0.3125,0 -0.3125,0.28125 0,0.03125 0,0.140625 0.171875,0.140625 0.171875,0 0.375,-0.03125 0.5625,-0.03125 h 0.625 c 0.296875,0 1.03125,0.03125 1.328125,0.03125 0.09375,0 0.265625,0 0.265625,-0.25 0,-0.171875 -0.109375,-0.171875 -0.34375,-0.171875 C 1.5,2.359375 1.46875,2.265625 1.46875,2.15625 c 0,-0.171875 0.640625,-2.640625 0.71875,-2.96875 0.171875,0.390625 0.546875,0.953125 1.296875,0.953125 1.625,0 3.375,-2.109375 3.375,-4.21875 0,-1.3125 -0.75,-2.25 -1.828125,-2.25 -0.921875,0 -1.6875,0.890625 -1.84375,1.09375 -0.125,-0.71875 -0.671875,-1.09375 -1.25,-1.09375 -0.421875,0 -0.75,0.203125 -1.015625,0.75 C 0.65625,-5.0625 0.453125,-4.1875 0.453125,-4.125 c 0,0.046875 0.0625,0.125 0.15625,0.125 0.125,0 0.140625,-0.015625 0.21875,-0.34375 0.21875,-0.84375 0.484375,-1.6875 1.0625,-1.6875 0.328125,0 0.453125,0.21875 0.453125,0.65625 0,0.34375 -0.046875,0.484375 -0.109375,0.734375 z M 3.09375,-4.46875 C 3.203125,-4.875 3.59375,-5.296875 3.828125,-5.5 3.984375,-5.640625 4.453125,-6.03125 5,-6.03125 c 0.640625,0 0.921875,0.625 0.921875,1.375 0,0.6875 -0.40625,2.296875 -0.765625,3.046875 -0.34375,0.78125 -1.015625,1.46875 -1.671875,1.46875 -0.96875,0 -1.125,-1.234375 -1.125,-1.296875 0,-0.046875 0.015625,-0.15625 0.03125,-0.21875 z m 0,0"
           id="path2" />
      </g>
      <g
         id="glyph-0-3">
        <path
           d="m 6.8125,-3.96875 c 0.078125,-0.296875 0.109375,-0.46875 0.109375,-0.84375 0,-0.875 -0.5,-1.515625 -1.59375,-1.515625 -1.265625,0 -1.9375,0.90625 -2.203125,1.265625 C 3.078125,-5.875 2.5,-6.328125 1.859375,-6.328125 c -0.40625,0 -0.734375,0.203125 -1.015625,0.75 -0.25,0.515625 -0.453125,1.390625 -0.453125,1.453125 0,0.046875 0.046875,0.125 0.15625,0.125 0.109375,0 0.125,-0.015625 0.21875,-0.34375 0.203125,-0.84375 0.484375,-1.6875 1.0625,-1.6875 0.328125,0 0.4375,0.21875 0.4375,0.65625 0,0.3125 -0.140625,0.875 -0.25,1.3125 L 1.625,-2.515625 c -0.0625,0.28125 -0.21875,0.921875 -0.296875,1.1875 -0.09375,0.359375 -0.25,1.046875 -0.25,1.109375 0,0.203125 0.15625,0.359375 0.375,0.359375 0.171875,0 0.375,-0.078125 0.484375,-0.296875 0.03125,-0.078125 0.15625,-0.578125 0.234375,-0.859375 l 0.3125,-1.296875 0.46875,-1.890625 C 2.984375,-4.28125 3.34375,-5 3.875,-5.46875 c 0.375,-0.34375 0.859375,-0.5625 1.421875,-0.5625 0.5625,0 0.765625,0.421875 0.765625,1 0,0.40625 -0.046875,0.640625 -0.125,0.921875 l -1.65625,6.59375 c -0.015625,0.0625 -0.046875,0.15625 -0.046875,0.234375 0,0.21875 0.171875,0.359375 0.390625,0.359375 0.125,0 0.421875,-0.046875 0.53125,-0.484375 z m 0,0"
           id="path3" />
      </g>
      <g
         id="glyph-0-4">
        <path
           d="m 3.71875,-5.40625 h 1.609375 c -0.375,1.609375 -0.625,2.65625 -0.625,3.796875 0,0.203125 0,1.75 0.59375,1.75 0.296875,0 0.5625,-0.265625 0.5625,-0.515625 0,-0.0625 0,-0.09375 -0.109375,-0.3125 -0.390625,-0.984375 -0.390625,-2.21875 -0.390625,-2.328125 0,-0.078125 0,-1.09375 0.3125,-2.390625 h 1.59375 c 0.1875,0 0.671875,0 0.671875,-0.453125 C 7.9375,-6.1875 7.65625,-6.1875 7.40625,-6.1875 H 2.6875 c -0.328125,0 -0.828125,0 -1.484375,0.703125 -0.375,0.421875 -0.828125,1.1875 -0.828125,1.265625 0,0.09375 0.0625,0.109375 0.15625,0.109375 0.09375,0 0.109375,-0.03125 0.1875,-0.125 0.75,-1.171875 1.484375,-1.171875 1.84375,-1.171875 H 3.390625 C 3.0625,-4.328125 2.71875,-3.078125 1.53125,-0.578125 1.421875,-0.34375 1.421875,-0.3125 1.421875,-0.234375 c 0,0.3125 0.25,0.375 0.390625,0.375 0.40625,0 0.53125,-0.375 0.703125,-0.96875 0.21875,-0.734375 0.21875,-0.765625 0.375,-1.34375 z m 0,0"
           id="path4" />
      </g>
      <g
         id="glyph-0-5">
        <path
           d="M 6.8125,-5.828125 5.46875,-8.96875 C 5.65625,-9.3125 6.078125,-9.359375 6.25,-9.375 c 0.09375,0 0.25,-0.015625 0.25,-0.265625 0,-0.15625 -0.125,-0.15625 -0.21875,-0.15625 -0.25,0 -0.53125,0.03125 -0.765625,0.03125 h -0.84375 c -0.875,0 -1.5,-0.03125 -1.515625,-0.03125 -0.109375,0 -0.265625,0 -0.265625,0.265625 0,0.15625 0.140625,0.15625 0.328125,0.15625 0.828125,0 0.890625,0.140625 1.03125,0.484375 L 5.953125,-4.90625 2.84375,-1.578125 C 2.328125,-1.015625 1.703125,-0.46875 0.640625,-0.421875 0.46875,-0.40625 0.359375,-0.40625 0.359375,-0.140625 0.359375,-0.09375 0.375,0 0.53125,0 0.734375,0 0.953125,-0.03125 1.140625,-0.03125 h 0.6875 C 2.28125,-0.03125 2.78125,0 3.234375,0 3.328125,0 3.5,0 3.5,-0.265625 3.5,-0.40625 3.40625,-0.421875 3.3125,-0.421875 3.03125,-0.4375 2.84375,-0.609375 2.84375,-0.828125 c 0,-0.25 0.171875,-0.421875 0.578125,-0.84375 L 4.703125,-3.0625 c 0.3125,-0.34375 1.078125,-1.171875 1.390625,-1.484375 l 1.515625,3.53125 c 0,0.03125 0.0625,0.171875 0.0625,0.1875 0,0.125 -0.3125,0.390625 -0.765625,0.40625 -0.09375,0 -0.25,0.015625 -0.25,0.28125 C 6.65625,0 6.796875,0 6.875,0 7.109375,0 7.40625,-0.03125 7.640625,-0.03125 H 9.21875 C 9.484375,-0.03125 9.75,0 10,0 c 0.09375,0 0.25,0 0.25,-0.265625 0,-0.15625 -0.140625,-0.15625 -0.265625,-0.15625 C 9.125,-0.4375 9.09375,-0.5 8.84375,-1.03125 L 6.953125,-5.484375 8.78125,-7.4375 C 8.921875,-7.578125 9.25,-7.9375 9.375,-8.078125 10,-8.71875 10.578125,-9.3125 11.734375,-9.375 c 0.140625,-0.015625 0.28125,-0.015625 0.28125,-0.265625 0,-0.15625 -0.125,-0.15625 -0.1875,-0.15625 -0.203125,0 -0.40625,0.03125 -0.609375,0.03125 H 10.5625 c -0.46875,0 -0.96875,-0.03125 -1.40625,-0.03125 -0.109375,0 -0.28125,0 -0.28125,0.265625 0,0.140625 0.109375,0.15625 0.1875,0.15625 0.234375,0.015625 0.46875,0.140625 0.46875,0.40625 v 0.03125 c -0.015625,0.109375 -0.046875,0.25 -0.203125,0.421875 z m 0,0"
           id="path5" />
      </g>
      <g
         id="glyph-1-0" />
      <g
         id="glyph-1-1">
        <path
           d="m 2.515625,-4.734375 c 0.0625,-0.125 0.09375,-0.203125 0.09375,-0.3125 0,-0.28125 -0.25,-0.53125 -0.5625,-0.53125 -0.28125,0 -0.46875,0.1875 -0.53125,0.453125 l -1.1875,4.359375 c 0,0.015625 -0.03125,0.125 -0.03125,0.140625 0,0.109375 0.25,0.171875 0.328125,0.171875 0.0625,0 0.078125,-0.03125 0.125,-0.15625 z m 0,0"
           id="path6" />
      </g>
      <g
         id="glyph-2-0" />
      <g
         id="glyph-2-1">
        <path
           d="m 4.578125,-3.1875 c 0,-0.796875 -0.046875,-1.59375 -0.390625,-2.328125 -0.453125,-0.96875 -1.28125,-1.125 -1.6875,-1.125 -0.609375,0 -1.328125,0.265625 -1.75,1.1875 -0.3125,0.6875 -0.359375,1.46875 -0.359375,2.265625 0,0.75 0.03125,1.640625 0.453125,2.40625 0.421875,0.796875 1.15625,1 1.640625,1 0.53125,0 1.296875,-0.203125 1.734375,-1.15625 0.3125,-0.6875 0.359375,-1.46875 0.359375,-2.25 z M 2.484375,0 C 2.09375,0 1.5,-0.25 1.328125,-1.203125 1.21875,-1.796875 1.21875,-2.71875 1.21875,-3.3125 c 0,-0.640625 0,-1.296875 0.078125,-1.828125 0.1875,-1.1875 0.9375,-1.28125 1.1875,-1.28125 0.328125,0 0.984375,0.1875 1.171875,1.171875 0.109375,0.5625 0.109375,1.3125 0.109375,1.9375 0,0.75 0,1.421875 -0.109375,2.0625 C 3.5,-0.296875 2.9375,0 2.484375,0 Z m 0,0"
           id="path7" />
      </g>
    </g>
  </defs>
  <g
     fill="#000000"
     fill-opacity="1"
     id="g8"
     transform="translate(-91.991623,-132.42187)">
    <use
       xlink:href="#glyph-0-1"
       x="91.725998"
       y="138.75"
       id="use7" />
  </g>
  <g
     fill="#000000"
     fill-opacity="1"
     id="g9"
     transform="translate(-91.991623,-132.42187)">
    <use
       xlink:href="#glyph-0-2"
       x="92.741997"
       y="260.32901"
       id="use8" />
  </g>
  <g
     fill="#000000"
     fill-opacity="1"
     id="g10"
     transform="translate(-91.991623,-132.42187)">
    <use
       xlink:href="#glyph-0-2"
       x="169.886"
       y="264.89301"
       id="use9" />
  </g>
  <g
     fill="#000000"
     fill-opacity="1"
     id="g11"
     transform="translate(-91.991623,-132.42187)">
    <use
       xlink:href="#glyph-1-1"
       x="176.936"
       y="259.68701"
       id="use10" />
  </g>
  <g
     fill="#000000"
     fill-opacity="1"
     id="g12"
     transform="translate(-91.991623,-132.42187)">
    <use
       xlink:href="#glyph-0-3"
       x="212.405"
       y="138.75"
       id="use11" />
  </g>
  <g
     fill="#000000"
     fill-opacity="1"
     id="g13"
     transform="translate(-91.991623,-132.42187)">
    <use
       xlink:href="#glyph-0-4"
       x="212.405"
       y="223.259"
       id="use12" />
  </g>
  <g
     fill="#000000"
     fill-opacity="1"
     id="g14"
     transform="translate(-91.991623,-132.42187)">
    <use
       xlink:href="#glyph-2-1"
       x="220.888"
       y="218.05299"
       id="use13" />
  </g>
  <path
     fill="none"
     stroke-width="0.3985"
     stroke-linecap="butt"
     stroke-linejoin="miter"
     stroke="#000000"
     stroke-opacity="1"
     stroke-miterlimit="10"
     d="M 12.781815,13.746089 42.848221,44.164057"
     id="path14" />
  <path
     fill="none"
     stroke-width="0.3985"
     stroke-linecap="butt"
     stroke-linejoin="miter"
     stroke="#000000"
     stroke-opacity="1"
     stroke-dasharray="2.98883, 2.98883"
     stroke-miterlimit="10"
     d="M 42.848221,44.164057 V 86.683589"
     id="path15" />
  <path
     fill="none"
     stroke-width="0.3985"
     stroke-linecap="butt"
     stroke-linejoin="miter"
     stroke="#000000"
     stroke-opacity="1"
     stroke-miterlimit="10"
     d="M 42.848221,86.683589 12.781815,117.5"
     id="path16" />
  <path
     fill="none"
     stroke-width="0.3985"
     stroke-linecap="butt"
     stroke-linejoin="miter"
     stroke="#000000"
     stroke-opacity="1"
     stroke-miterlimit="10"
     d="M 42.848221,86.683589 72.914627,117.96875"
     id="path17" />
  <path
     fill="none"
     stroke-width="0.3985"
     stroke-linecap="butt"
     stroke-linejoin="miter"
     stroke="#0000ff"
     stroke-opacity="1"
     stroke-miterlimit="10"
     d="M 42.848221,44.164057 H 85.367752"
     id="path18" />
  <g
     fill="#0000ff"
     fill-opacity="1"
     id="g18"
     transform="translate(-91.991623,-132.42187)">
    <use
       xlink:href="#glyph-0-5"
       x="149.70599"
       y="171.605"
       id="use18" />
  </g>
  <path
     fill="none"
     stroke-width="0.3985"
     stroke-linecap="butt"
     stroke-linejoin="miter"
     stroke="#000000"
     stroke-opacity="1"
     stroke-miterlimit="10"
     d="M 115.43416,13.507807 85.367752,44.164057"
     id="path19" />
  <path
     fill="none"
     stroke-width="0.3985"
     stroke-linecap="butt"
     stroke-linejoin="miter"
     stroke="#000000"
     stroke-opacity="1"
     stroke-miterlimit="10"
     d="M 85.367752,44.164057 116.30135,74.230464"
     id="path20" />
</svg>

<?xml version='1.0' encoding='UTF-8'?>
<!-- This file was generated by dvisvgm 2.13.1 -->
<svg version='1.1' xmlns='http://www.w3.org/2000/svg' xmlns:xlink='http://www.w3.org/1999/xlink' width='134.145853pt' height='135.111672pt' viewBox='-67.219025 -67.218968 134.145853 135.111672'>
<defs>
<path id='g2-48' d='M4.582814-3.188045C4.582814-3.985056 4.533001-4.782067 4.184309-5.519303C3.726027-6.475716 2.909091-6.635118 2.49066-6.635118C1.892902-6.635118 1.165629-6.37609 .757161-5.449564C.438356-4.762142 .388543-3.985056 .388543-3.188045C.388543-2.440847 .428394-1.544209 .836862-.787049C1.265255 .019925 1.992528 .219178 2.480697 .219178C3.01868 .219178 3.775841 .009963 4.214197-.936488C4.533001-1.62391 4.582814-2.400996 4.582814-3.188045ZM2.480697 0C2.092154 0 1.504359-.249066 1.325031-1.205479C1.215442-1.803238 1.215442-2.719801 1.215442-3.307597C1.215442-3.945205 1.215442-4.60274 1.295143-5.140722C1.484433-6.326276 2.231631-6.41594 2.480697-6.41594C2.809465-6.41594 3.466999-6.236613 3.656289-5.250311C3.755915-4.692403 3.755915-3.935243 3.755915-3.307597C3.755915-2.560399 3.755915-1.882939 3.646326-1.24533C3.496887-.298879 2.929016 0 2.480697 0Z'/>
<path id='g0-48' d='M2.520548-4.732254C2.570361-4.851806 2.610212-4.941469 2.610212-5.041096C2.610212-5.330012 2.351183-5.569116 2.042341-5.569116C1.763387-5.569116 1.58406-5.379826 1.514321-5.120797L.328767-.767123C.328767-.747198 .288917-.637609 .288917-.627646C.288917-.518057 .547945-.448319 .627646-.448319C.687422-.448319 .697385-.478207 .757161-.607721L2.520548-4.732254Z'/>
<path id='g1-13' d='M5.422862-1.750236C5.39417-2.453199 5.365477-3.557857 4.820322-4.849014C4.533398-5.566324 4.045627-6.326672 2.998355-6.326672C1.233773-6.326672 .272578-4.07432 .272578-3.701318C.272578-3.572203 .373001-3.572203 .41604-3.572203C.545155-3.572203 .545155-3.600895 .616886-3.787396C.918157-4.67686 1.836313-5.379823 2.826201-5.379823C4.820322-5.379823 5.107246-3.156163 5.107246-1.73589C5.107246-.832079 5.006822-.530809 4.920745-.243885C4.648167 .645579 4.174743 2.424507 4.174743 2.826201C4.174743 2.94097 4.217782 3.070086 4.332551 3.070086C4.547744 3.070086 4.67686 2.596661 4.834668 2.022814C5.178977 .760348 5.265054 .129116 5.336785-.444732C5.379823-.789041 6.197557-3.156163 7.330906-5.408516C7.431329-5.638055 7.632176-6.025402 7.632176-6.068441C7.632176-6.082787 7.61783-6.18321 7.488714-6.18321C7.460022-6.18321 7.388291-6.18321 7.359598-6.125826C7.330906-6.097133 6.828789-5.121592 6.398403-4.146051C6.18321-3.65828 5.896286-3.012701 5.422862-1.750236Z'/>
<path id='g1-17' d='M6.814443-3.973896C6.886174-4.26082 6.929213-4.432974 6.929213-4.820322C6.929213-5.681093 6.427096-6.326672 5.336785-6.326672C4.059973-6.326672 3.385702-5.422862 3.127471-5.064207C3.084432-5.88194 2.496238-6.326672 1.865005-6.326672C1.448966-6.326672 1.119003-6.125826 .846426-5.58067C.588194-5.064207 .387347-4.189089 .387347-4.131704S.444732-4.002589 .545155-4.002589C.659925-4.002589 .674271-4.016935 .760348-4.346897C.975541-5.193323 1.248119-6.039748 1.821967-6.039748C2.151929-6.039748 2.266699-5.810209 2.266699-5.379823C2.266699-5.064207 2.123237-4.504705 2.022814-4.059973L1.62112-2.510584C1.563735-2.238007 1.405927-1.592428 1.334196-1.334196C1.233773-.961195 1.075965-.286924 1.075965-.215193C1.075965-.014346 1.233773 .143462 1.448966 .143462C1.62112 .143462 1.821967 .057385 1.936736-.157808C1.965429-.229539 2.094545-.731656 2.166276-1.01858L2.481892-2.309738L2.955316-4.203435C2.984009-4.289513 3.342664-5.006822 3.873473-5.465901C4.246474-5.810209 4.734245-6.039748 5.293746-6.039748C5.867594-6.039748 6.068441-5.609363 6.068441-5.035515C6.068441-4.619475 6.011056-4.389936 5.939325-4.117358L4.275166 2.481892C4.26082 2.553623 4.232128 2.6397 4.232128 2.725777C4.232128 2.94097 4.404282 3.084432 4.619475 3.084432C4.748591 3.084432 5.049861 3.027047 5.16463 2.596661L6.814443-3.973896Z'/>
<path id='g1-25' d='M3.715665-5.408516H5.336785C4.949438-3.801742 4.705552-2.75447 4.705552-1.606774C4.705552-1.405927 4.705552 .143462 5.293746 .143462C5.595016 .143462 5.853248-.129116 5.853248-.373001C5.853248-.444732 5.853248-.473424 5.752824-.688617C5.365477-1.678505 5.365477-2.912278 5.365477-3.012701C5.365477-3.098778 5.365477-4.117358 5.666747-5.408516H7.273521C7.460022-5.408516 7.933446-5.408516 7.933446-5.867594C7.933446-6.18321 7.660868-6.18321 7.402637-6.18321H2.682739C2.352776-6.18321 1.865005-6.18321 1.20508-5.480247C.832079-5.064207 .373001-4.303859 .373001-4.217782S.444732-4.103012 .530809-4.103012C.631233-4.103012 .645579-4.146051 .71731-4.232128C1.463312-5.408516 2.209314-5.408516 2.567969-5.408516H3.385702C3.070086-4.332551 2.711431-3.084432 1.535043-.573848C1.420273-.344309 1.420273-.315616 1.420273-.229539C1.420273 .071731 1.678505 .143462 1.807621 .143462C2.22366 .143462 2.33843-.229539 2.510584-.832079C2.740123-1.563735 2.740123-1.592428 2.883585-2.166276L3.715665-5.408516Z'/>
<path id='g1-88' d='M6.814443-5.824555L5.465901-8.966372C5.652401-9.310681 6.082787-9.368066 6.254941-9.382412C6.341018-9.382412 6.498827-9.396758 6.498827-9.640643C6.498827-9.798452 6.369711-9.798452 6.283634-9.798452C6.039748-9.798452 5.752824-9.769759 5.508939-9.769759H4.67686C3.801742-9.769759 3.170509-9.798452 3.156163-9.798452C3.041393-9.798452 2.897932-9.798452 2.897932-9.525874C2.897932-9.382412 3.027047-9.382412 3.213548-9.382412C4.045627-9.382412 4.103012-9.23895 4.246474-8.894641L5.953671-4.906399L2.840547-1.578082C2.324084-1.01858 1.707197-.473424 .645579-.41604C.473424-.401693 .358655-.401693 .358655-.143462C.358655-.100423 .373001 0 .530809 0C.731656 0 .946849-.028692 1.147696-.028692H1.821967C2.281045-.028692 2.783162 0 3.227894 0C3.328317 0 3.500472 0 3.500472-.258232C3.500472-.401693 3.400048-.41604 3.313971-.41604C3.027047-.444732 2.840547-.60254 2.840547-.832079C2.840547-1.075965 3.012701-1.248119 3.428741-1.678505L4.705552-3.070086C5.021168-3.400048 5.781517-4.232128 6.097133-4.547744L7.603484-1.01858C7.61783-.989888 7.675215-.846426 7.675215-.832079C7.675215-.702964 7.359598-.444732 6.90052-.41604C6.814443-.41604 6.656635-.401693 6.656635-.143462C6.656635 0 6.800097 0 6.871828 0C7.115713 0 7.402637-.028692 7.646522-.028692H9.224604C9.482835-.028692 9.755413 0 9.999298 0C10.099722 0 10.25753 0 10.25753-.272578C10.25753-.41604 10.114068-.41604 9.984952-.41604C9.12418-.430386 9.095488-.502117 8.851603-1.032926L6.957905-5.480247L8.779872-7.431329C8.923334-7.574791 9.253296-7.933446 9.382412-8.076908C9.999298-8.722487 10.573146-9.310681 11.735188-9.382412C11.87865-9.396758 12.022112-9.396758 12.022112-9.640643C12.022112-9.798452 11.892996-9.798452 11.835611-9.798452C11.634765-9.798452 11.419572-9.769759 11.218725-9.769759H10.5588C10.099722-9.769759 9.597605-9.798452 9.152873-9.798452C9.052449-9.798452 8.880295-9.798452 8.880295-9.54022C8.880295-9.396758 8.980718-9.382412 9.066796-9.382412C9.296335-9.35372 9.54022-9.23895 9.54022-8.966372L9.525874-8.93768C9.511528-8.837257 9.482835-8.693795 9.325027-8.52164L6.814443-5.824555Z'/>
<path id='g1-112' d='M.616886 1.821967C.516463 2.252353 .459078 2.367122-.129116 2.367122C-.30127 2.367122-.444732 2.367122-.444732 2.6397C-.444732 2.668392-.430386 2.783162-.272578 2.783162C-.086077 2.783162 .11477 2.75447 .30127 2.75447H.918157C1.219427 2.75447 1.951083 2.783162 2.252353 2.783162C2.33843 2.783162 2.510584 2.783162 2.510584 2.52493C2.510584 2.367122 2.410161 2.367122 2.166276 2.367122C1.506351 2.367122 1.463312 2.266699 1.463312 2.151929C1.463312 1.979775 2.108891-.487771 2.194968-.817733C2.352776-.41604 2.740123 .143462 3.486126 .143462C5.107246 .143462 6.857482-1.965429 6.857482-4.07432C6.857482-5.39417 6.111479-6.326672 5.035515-6.326672C4.117358-6.326672 3.342664-5.437208 3.184855-5.236361C3.070086-5.953671 2.510584-6.326672 1.936736-6.326672C1.520697-6.326672 1.190734-6.125826 .918157-5.58067C.659925-5.064207 .459078-4.189089 .459078-4.131704S.516463-4.002589 .616886-4.002589C.731656-4.002589 .746002-4.016935 .832079-4.346897C1.047272-5.193323 1.31985-6.039748 1.893698-6.039748C2.22366-6.039748 2.33843-5.810209 2.33843-5.379823C2.33843-5.035515 2.295391-4.892053 2.238007-4.633821L.616886 1.821967ZM3.098778-4.476013C3.199202-4.877707 3.600895-5.293746 3.830434-5.494593C3.988242-5.638055 4.461667-6.039748 5.006822-6.039748C5.638055-6.039748 5.924979-5.408516 5.924979-4.662514C5.924979-3.973896 5.523285-2.352776 5.16463-1.606774C4.805976-.832079 4.146051-.143462 3.486126-.143462C2.510584-.143462 2.352776-1.377235 2.352776-1.43462C2.352776-1.477658 2.381468-1.592428 2.395815-1.664159L3.098778-4.476013Z'/>
</defs>
<g id='page1'>
<g transform='matrix(1 0 0 1 -43.114 -37.8368)'>
<use x='-24.105025' y='-23.205323' xlink:href='#g1-13'/>
</g>
<g transform='matrix(1 0 0 1 -42.0975 83.7443)'>
<use x='-24.105025' y='-23.205323' xlink:href='#g1-112'/>
</g>
<g transform='matrix(1 0 0 1 35.0472 88.3085)'>
<use x='-24.105025' y='-23.205323' xlink:href='#g1-112'/>
<use x='-17.054857' y='-28.411432' xlink:href='#g0-48'/>
</g>
<g transform='matrix(1 0 0 1 77.5674 -37.8368)'>
<use x='-24.105025' y='-23.205323' xlink:href='#g1-17'/>
</g>
<g transform='matrix(1 0 0 1 77.5674 46.6739)'>
<use x='-24.105025' y='-23.205323' xlink:href='#g1-25'/>
<use x='-15.621911' y='-28.411432' xlink:href='#g2-48'/>
</g>
<path d='M-54.1719-53.6211L-24.105469-23.207032' stroke='#000' fill='none' stroke-width='.3985' stroke-miterlimit='10'/>
<path d='M-24.105469-23.207032V19.3164' stroke='#000' fill='none' stroke-width='.3985' stroke-miterlimit='10' stroke-dasharray='2.98883 2.98883'/>
<path d='M-24.105469 19.3164L-54.1719 50.1328' stroke='#000' fill='none' stroke-width='.3985' stroke-miterlimit='10'/>
<path d='M-24.105469 19.3164L5.9609 50.5977' stroke='#000' fill='none' stroke-width='.3985' stroke-miterlimit='10'/>
<path d='M-24.105469-23.207032H18.4141' stroke='#00f' fill='none' stroke-width='.3985' stroke-miterlimit='10'/>
<g fill='#00f' transform='matrix(1 0 0 1 14.86696 -4.9809)'>
<use x='-24.105025' y='-23.205323' xlink:href='#g1-88'/>
</g>
<path d='M48.4805-53.8633L18.4141-23.207032' stroke='#000' fill='none' stroke-width='.3985' stroke-miterlimit='10'/>
<path d='M18.4141-23.207032L49.3477 6.8594' stroke='#000' fill='none' stroke-width='.3985' stroke-miterlimit='10'/>
</g>
</svg>
